X:1
T:J'ay tant chassé
T:Mitantier
T:Source : Second livre contenant 25 chansons nouvelles à 4 parties---Paris---P.Attaignant---1536. Editor : André Vierendeels (24/12/17). Notes : Original clefs : C1, C3, C4, F4 Original note values have been halved Editorial accidentals above the staff
T:J'ay tant chassé
T:©
T:©
T:©
C:Mitantier
Z:©
%%score [ 1 [ 2 3 ] 4 ]
L:1/8
Q:1/4=120
M:2/2
K:C
V:1 treble nm="Soprano" snm="S"
V:2 treble-8 nm="Tenor 1" snm="T 1"
V:3 treble-8 nm="Tenor 2" snm="T 2"
V:4 bass nm="Bass" snm="B"
V:1
 A8 | A4 G4 | A2 A2 G2 E2 | G3 A B2 c2 | B4 z2 A2 | G2 EF GA B2- | BA A4 G2 | A4 z2 A2 | B4 c4 | %9
w: J'ay|tant chas-|sé, que la proy-|e _ _ m'a|pris, que|la proy- * * * *|* * e m'a|pris, ien|suys a-|
 A4 z2 F2 | F2 D2 F3 G | AB A4 G2 | A3 G FE F2- | F2 E4 D2 | E4 z4 | z8 | z2 G2 A2 B2 | c4 z2 A2 | %18
w: pris dont|qui- te le- *|||* * sca-|voir,||plus nay vou-|loir de|
 c2 B2 A2 A2 | G4 z4 | A8 | A4 G4 | A2 A2 G2 E2 | G3 A B2 c2 | B4 z2 A2 | G2 EF GA B2- | BA A4 G2 | %27
w: iou- er à tel|pris,|on|m'a sur-|pris pour ung bien|peu _ _ da-|voir, pour|un bien _ _ _ _|_ _ peu da-|
 A4 z4 | A8 | A4 G4 | A2 A2 G2 E2 | G3 A B2 c2 | B4 z2 A2 | G2 EF GA B2- |"^#" BA A4 G2 | A8 |] %36
w: voir,|on|m'a sur-|pris pour ung bien|peu _ _ da-|voir, pour|ung bien peu _ _ _|_ _ _ da-|voir.|
V:2
 e4 e2 f2 | e2 e2 d2 B2 | c3 d e4 | e8- | e8 | z2 e2 d2 B2 | d4 e3 d | cB c2 BA A2- | A2 G2 A4 | %9
w: J'ay tant chas-|sé, que la proy-|e _ m'a|pris,|_|que la proy-|e m'a _|_ _ _ _ _ _|* * pris,|
 z4 z2 A2 | d2 d2 cBAG | F2 A2 B2 B2 | c2 c2 A4 | z2 A2 A2 B2 | c4 A2 c2- | c2 B2 A2 B2 | %16
w: ien|suys a- pris _ _ _|_ dont quit- te|le sca- voir,|plus nay vou-|loir de iou-|* er à tel|
 G4 z2 e2 | e2 e2 f3 e/d/ | c2 d2 f4 | e4 z4 | e4 e2 f2 | e2 e2 d2 B2 | c3 d e4 | e8- | e8 | %25
w: pris, de|iou- er à _ _|_ _ tel-|pris,|on m'a sur-|pris pour ung bien|peu da- *|voir,|_|
 z2 e2 d2 B2 | d4 e4 | c4 z4 | e4 e2 f2 | e2 e2 d2 B2 | c3 d e4 | e8- | e8 | z2 e2 d2 B2 | d4 e4 | %35
w: pour ung bien|peu da-|voir,|on m'a sur-|pris pour ung bien|pe- da- *|voir,|_|pour ung bien|peu da-|
 c8 |] %36
w: voir.|
V:3
 A8 | c4 B4 | A4 z2 A2 | G2 E2 G2 A2 | EFGA B2 c2 | B2 GA Bc d2- | dcBA B4 | A4 z2 A2 | %8
w: J'ay|tant chas-|sé, que|la proy- e m'a|_ _ _ _ _ _|||pris, ien|
 d2 d2 cBAG | F2 F2 E2 D2 | F2 G2 A4 | z2 D2 G2 G2 | FGAB c2 A2- | AGFE F4 | E4 z2 G2 | %15
w: suys a- pris _ _ _|_ dont quit- te|le sca- voir,|dont quit- te|le _ _ _ _ _|_ _ _ _ sca-|voir, plus|
 A2 B2 c2 G2 | c3 B A2 G2 | A4 DEFG | A2 B2 c2 d2 | B4 z4 | A8 | c4 B4 | A4 z2 A2 | G2 E2 G2 A2 | %24
w: nay vou- loir de|iou _ _ er|à tel _ _ _|_ _ _ _|pris,|on|m'a sur-|pris pour|ung bien peu da-|
 EFGA B2 c2 | B2 GA Bc d2- | dcBA B4 | A4 z4 | A8 | c4 B4 | A4 z2 A2 | G2 E2 G2 A2 | EFGA B2 c2 | %33
w: |||voir,|on|m'a sur-|pris pour|ung bien peu da-||
 B2 GA Bc d2- | dcBA B4 | A8 |] %36
w: ||voir.|
V:4
 A,,4 C,2 D,2 | A,,4 z2 E,2 | C,2 A,,2 C,3 D, | E,4 z2 A,2 | G,2 E,2 G,2 A,2 | E,4 z2 G,2 | %6
w: J'ay tant chas-|sé, que|la proy- e m'a-|pris, que|la proy- e m'a|pris, que|
 D,2 F,2 E,2 E,2 | A,,2 A,,2 D,4 | B,,4 A,,2 A,,2 | D,4 C,2 D,2- | D,2 C,B,, A,,2 D,2- | %11
w: la proy- e m'a|pris, ien suys|a- pris, dont|quit- te le|_ _ _ _ sca-|
 D,2 F,2 E,4 | z2 A,,4 D,2- | D,2 C,2 D,2 D,2 | A,,2 C,2 D,2 E,2 | F,2 D,2 F,2 E,2- | %16
w: * * voir,|dont quit-|* te le sca-|voir, plus nay le|vou- loir de iou-|
 E,2 C,2 F,2 E,2 | A,,2 A,2 A,4- | A,2 G,2 F,2 D,2 | E,4 z4 | A,,4 C,2 D,2 | A,,4 z2 E,2 | %22
w: * er à tel|pris, de iou-|* er à tel|pris,|on ma sur-|pris, pour|
 C,2 A,,2 C,3 D, | E,4 z2 A,2 | G,2 E,2 G,2 A,2 | E,4 z2 G,2 | D,2 F,2 E,2 E,2 | A,,4 z4 | %28
w: ung bien peu da-|voir, pour|ung bien peu da-|voir, pour|ung bien peu da-|voir,|
 A,,4 C,2 D,2 | A,,4 z2 E,2 | C,2 A,,2 C,3 D, | E,4 z2 A,2 | G,2 E,2 G,2 A,2 | E,4 z2 G,2 | %34
w: on m'a sur-|pris pour|ung bien peu da-|voir, pour|ung bien peu da-|voir, pour|
 D,2 F,2 E,2 E,2 | A,,8 |] %36
w: ung bien peu da-|voir.|

